X:174
T:Mountain Top, The
R:reel
S:Mary Bergin
D:Paddy Moloney & Sean Potts: Tin Whistles
Z:id:hn-reel-174
M:C|
K:G
{c}BG{c}AG EGDE|G2 (3B^cd {g}edgd|{c}BG{c}AG EGDG|1 (3BcB Ad BGGA:|2 (3BcB Ac BG~G2||
Bd (3B^cd edBA|(3B^cd ef gfed|BddB d2ge|dBAd BGGA|
Bd (3B^cd edBA|(3B^cd ef ~g3a|bgaf gfed|(3efg fa gedc||

